Suru++-Ubuntu/apps/scalable/defcon.svg

<svg width="256" height="256" version="1.1" viewBox="0 0 67.73 67.73" xmlns="http://www.w3.org/2000/svg" xmlns:xlink="http://www.w3.org/1999/xlink">
 <defs>
  <linearGradient id="linearGradient1108" x1="296" x2="296" y1="-212" y2="236" gradientUnits="userSpaceOnUse">
   <stop style="stop-color:#ffffff" offset="0"/>
   <stop style="stop-color:#ffffff;stop-opacity:.09803922" offset=".125"/>
   <stop style="stop-color:#000000;stop-opacity:.09803922" offset=".925"/>
   <stop style="stop-color:#000000;stop-opacity:.49803922" offset="1"/>
  </linearGradient>
  <clipPath id="clipPath1082-3-361">
   <path d="M 361.9375,-212 C 507.2348,-212 528,-191.28677 528,-46.125 V 70.125 C 528,215.28618 507.2348,236 361.9375,236 H 214.0625 C 68.7652,236 48,215.28618 48,70.125 V -46.125 C 48,-191.28677 68.7652,-212 214.0625,-212 Z" style="fill:#8c59d9"/>
  </clipPath>
  <filter id="filter4569" x="-.01" y="-.01" width="1.023" height="1.025" style="color-interpolation-filters:sRGB">
   <feGaussianBlur stdDeviation="1.16"/>
  </filter>
  <filter id="filter939" x="-.02" y="-.03" width="1.046" height="1.05" style="color-interpolation-filters:sRGB">
   <feGaussianBlur stdDeviation="2.32"/>
  </filter>
  <linearGradient id="linearGradient954" x1="7.5" x2="64.112" y1="230.789" y2="294.501" gradientTransform="matrix(1.0193681,0,0,1.0193681,0,-5.7113166)" gradientUnits="userSpaceOnUse">
   <stop style="stop-color:#1c1c1c" offset="0"/>
   <stop style="stop-color:#555555" offset="1"/>
  </linearGradient>
  <filter id="filter1010" x="-.05" y="-.05" width="1.093" height="1.099" style="color-interpolation-filters:sRGB">
   <feGaussianBlur stdDeviation=".665"/>
  </filter>
  <filter id="filter1044" x="-.06" y="-.06" width="1.12" height="1.12" style="color-interpolation-filters:sRGB">
   <feGaussianBlur stdDeviation=".992"/>
  </filter>
 </defs>
 <g transform="translate(0,-229.26666)">
  <path transform="matrix(.26970779 0 0 .26970779 -1.9098094e-8 231.46531)" d="m162.53675 5.5680001c72.64865 0 83.03125 10.356615 83.03125 82.937505v58.125005c0 72.58059-10.3826 82.9375-83.03125 82.9375h-73.937496c-72.648654 0-83.031254-10.35691-83.031254-82.9375v-58.125005c0-72.58089 10.3826-82.937505 83.031254-82.937505z" style="filter:url(#filter939);opacity:.2"/>
  <path d="m43.837429 232.42763c19.593907 0 22.394176 2.79326 22.394176 22.36889v15.67677c0 19.57555-2.800269 22.36889-22.394176 22.36889h-19.941519c-19.593909 0-22.394177-2.79334-22.394177-22.36889v-15.67677c0-19.57563 2.8002682-22.36889 22.394177-22.36889z" style="fill:none;opacity:.1;stroke-linecap:round;stroke-linejoin:round;stroke-width:1.0788311;stroke:#000000"/>
  <path transform="matrix(.26970779 0 0 .26970779 -1.9098094e-8 231.46531)" d="m162.53675 3.5680001c72.64865 0 83.03125 10.356615 83.03125 82.937505v58.125005c0 72.58059-10.3826 82.9375-83.03125 82.9375h-73.937496c-72.648654 0-83.031254-10.35691-83.031254-82.9375v-58.125005c0-72.58089 10.3826-82.937505 83.031254-82.937505z" style="filter:url(#filter4569);opacity:.1"/>
  <path d="m43.837427 232.42763c19.593907 0 22.394175 2.79326 22.394175 22.36889v15.67677c0 19.57555-2.800268 22.36889-22.394175 22.36889h-19.94152c-19.593907 0-22.394176-2.79334-22.394176-22.36889v-15.67677c0-19.57563 2.8002682-22.36889 22.394176-22.36889z" style="fill:url(#linearGradient954)"/>
  <path transform="matrix(.1348539 0 0 .1348539 -4.9712559 261.01666)" d="M 361.9375,-212 C 507.2348,-212 528,-191.28677 528,-46.125 V 70.125 C 528,215.28618 507.2348,236 361.9375,236 H 214.0625 C 68.7652,236 48,215.28618 48,70.125 V -46.125 C 48,-191.28677 68.7652,-212 214.0625,-212 Z" clip-path="url(#clipPath1082-3-361)" style="fill:none;opacity:.4;stroke-linecap:round;stroke-linejoin:round;stroke-width:8;stroke:url(#linearGradient1108)"/>
  <path d="m23.895907 292.84218c-19.593907 0-22.394176-2.79326-22.394176-22.36889v-7.83838h64.729871v7.83838c0 19.57563-2.800268 22.36889-22.394175 22.36889z" style="fill:#ffffff;opacity:.1"/>
  <path d="m33.866666 232.42763v60.41455h9.970761c19.593907 0 22.394175-2.79334 22.394175-22.36889v-15.67677c0-19.57563-2.800268-22.36889-22.394175-22.36889z" style="fill:#ffffff;opacity:.1"/>
  <g transform="translate(.2639912 -.070965)">
   <path d="m53.446425 262.70587a19.84375 19.84375 0 1 1-39.687499 0 19.84375 19.84375 0 1 1 39.687499 0z" style="fill:#ffffff;filter:url(#filter1044);opacity:.4"/>
   <path d="m53.446425 262.70587a19.84375 19.84375 0 1 1-39.687499 0 19.84375 19.84375 0 1 1 39.687499 0z" style="fill:#b12828"/>
   <g style="filter:url(#filter1010);opacity:.3">
    <path transform="matrix(.26458333 0 0 .26458333 -.2639912 229.33762)" d="m160.5 69.824219-22.5 38.968751a20.000003 20.000003 0 0 1 0.08984 0.04687 20.000003 20.000003 0 0 1 1.67383 1.0918 20.000003 20.000003 0 0 1 1.55469 1.25586 20.000003 20.000003 0 0 1 1.42383 1.4043 20.000003 20.000003 0 0 1 1.27539 1.53906 20.000003 20.000003 0 0 1 1.11523 1.6582 20.000003 20.000003 0 0 1 0.94531 1.76367 20.000003 20.000003 0 0 1 0.76368 1.84766 20.000003 20.000003 0 0 1 0.57617 1.91406 20.000003 20.000003 0 0 1 0.38086 1.96289 20.000003 20.000003 0 0 1 0.18359 1.99024 20.000003 20.000003 0 0 1 0.01758 0.84765h45a64.999986 64.999986 0 0 0-32.5-56.291011z"/>
    <path transform="matrix(.26458333 0 0 .26458333 -.2639912 229.33762)" d="m95.5 69.824219a64.999986 64.999986 0 0 0-32.5 56.291011h45a20.000003 20.000003 0 0 1 0.09961-1.99609 20.000003 20.000003 0 0 1 0.29687-1.97656 20.000003 20.000003 0 0 1 0.49414-1.9375 20.000003 20.000003 0 0 1 0.68555-1.87891 20.000003 20.000003 0 0 1 0.86719-1.79883 20.000003 20.000003 0 0 1 1.04492-1.70507 20.000003 20.000003 0 0 1 1.20899-1.5918 20.000003 20.000003 0 0 1 1.36328-1.46485 20.000003 20.000003 0 0 1 1.5-1.31835 20.000003 20.000003 0 0 1 1.62695-1.16407 20.000003 20.000003 0 0 1 0.82227-0.47265l-22.50977-38.986331z"/>
    <path transform="matrix(.26458333 0 0 .26458333 -.2639912 229.33762)" d="m117.99805 143.43945-22.49805 38.96875a64.999986 64.999986 0 0 0 65 0l-22.50781-38.98632a20.000003 20.000003 0 0 1-0.91211 0.52343 20.000003 20.000003 0 0 1-1.82422 0.81641 20.000003 20.000003 0 0 1-1.89844 0.63281 20.000003 20.000003 0 0 1-1.94922 0.4375 20.000003 20.000003 0 0 1-1.98437 0.24219 20.000003 20.000003 0 0 1-2 0.04297 20.000003 20.000003 0 0 1-1.99219-0.15821 20.000003 20.000003 0 0 1-1.9668-0.35546 20.000003 20.000003 0 0 1-1.92187-0.55079 20.000003 20.000003 0 0 1-1.85742-0.73828 20.000003 20.000003 0 0 1-1.6875-0.875z"/>
    <path d="m36.909964 262.70587a3.3072935 3.3072935 0 1 1-6.614587 0 3.3072935 3.3072935 0 1 1 6.614587 0z"/>
   </g>
   <path transform="matrix(.26458333 0 0 .26458333 -.2639912 229.33762)" d="m160.5 69.824219-22.5 38.968751a20.000003 20.000003 0 0 1 0.08984 0.04687 20.000003 20.000003 0 0 1 1.67383 1.0918 20.000003 20.000003 0 0 1 1.55469 1.25586 20.000003 20.000003 0 0 1 1.42383 1.4043 20.000003 20.000003 0 0 1 1.27539 1.53906 20.000003 20.000003 0 0 1 1.11523 1.6582 20.000003 20.000003 0 0 1 0.94531 1.76367 20.000003 20.000003 0 0 1 0.76368 1.84766 20.000003 20.000003 0 0 1 0.57617 1.91406 20.000003 20.000003 0 0 1 0.38086 1.96289 20.000003 20.000003 0 0 1 0.18359 1.99024 20.000003 20.000003 0 0 1 0.01758 0.84765h45a64.999986 64.999986 0 0 0-32.5-56.291011z" style="fill:#ffb800"/>
   <path transform="matrix(.26458333 0 0 .26458333 -.2639912 229.33762)" d="m95.5 69.824219a64.999986 64.999986 0 0 0-32.5 56.291011h45a20.000003 20.000003 0 0 1 0.09961-1.99609 20.000003 20.000003 0 0 1 0.29687-1.97656 20.000003 20.000003 0 0 1 0.49414-1.9375 20.000003 20.000003 0 0 1 0.68555-1.87891 20.000003 20.000003 0 0 1 0.86719-1.79883 20.000003 20.000003 0 0 1 1.04492-1.70507 20.000003 20.000003 0 0 1 1.20899-1.5918 20.000003 20.000003 0 0 1 1.36328-1.46485 20.000003 20.000003 0 0 1 1.5-1.31835 20.000003 20.000003 0 0 1 1.62695-1.16407 20.000003 20.000003 0 0 1 0.82227-0.47265l-22.50977-38.986331z" style="fill:#ffb800"/>
   <path transform="matrix(.26458333 0 0 .26458333 -.2639912 229.33762)" d="m117.99805 143.43945-22.49805 38.96875a64.999986 64.999986 0 0 0 65 0l-22.50781-38.98632a20.000003 20.000003 0 0 1-0.91211 0.52343 20.000003 20.000003 0 0 1-1.82422 0.81641 20.000003 20.000003 0 0 1-1.89844 0.63281 20.000003 20.000003 0 0 1-1.94922 0.4375 20.000003 20.000003 0 0 1-1.98437 0.24219 20.000003 20.000003 0 0 1-2 0.04297 20.000003 20.000003 0 0 1-1.99219-0.15821 20.000003 20.000003 0 0 1-1.9668-0.35546 20.000003 20.000003 0 0 1-1.92187-0.55079 20.000003 20.000003 0 0 1-1.85742-0.73828 20.000003 20.000003 0 0 1-1.6875-0.875z" style="fill:#ffb800"/>
   <path d="m36.909964 262.70587a3.3072935 3.3072935 0 1 1-6.614587 0 3.3072935 3.3072935 0 1 1 6.614587 0z" style="fill:#ffb800"/>
  </g>
 </g>
</svg>

<svg xmlns="http://www.w3.org/2000/svg" xmlns:xlink="http://www.w3.org/1999/xlink" width="256" height="256" version="1.1" viewBox="0 0 67.73 67.73">
 <defs>
  <linearGradient id="linearGradient1304">
   <stop style="stop-color:#1c1c1c" offset="0"/>
   <stop style="stop-color:#555555" offset="1"/>
  </linearGradient>
  <linearGradient id="linearGradient1108" x1="296" x2="296" y1="-212" y2="236" gradientUnits="userSpaceOnUse" xlink:href="#linearGradient1013"/>
  <linearGradient id="linearGradient1013">
   <stop style="stop-color:#ffffff" offset="0"/>
   <stop offset=".125" style="stop-color:#ffffff;stop-opacity:0.09803922"/>
   <stop offset=".925" style="stop-color:#000000;stop-opacity:0.09803922"/>
   <stop style="stop-color:#000000;stop-opacity:0.49803922" offset="1"/>
  </linearGradient>
  <clipPath id="clipPath1082-3-361" clipPathUnits="userSpaceOnUse">
   <path style="fill:#8c59d9" d="M 361.9375,-212 C 507.2348,-212 528,-191.28677 528,-46.125 V 70.125 C 528,215.28618 507.2348,236 361.9375,236 H 214.0625 C 68.7652,236 48,215.28618 48,70.125 V -46.125 C 48,-191.28677 68.7652,-212 214.0625,-212 Z"/>
  </clipPath>
  <filter id="filter4569" width="1.023" height="1.025" x="-.01" y="-.01" style="color-interpolation-filters:sRGB">
   <feGaussianBlur stdDeviation="1.16"/>
  </filter>
  <filter id="filter939" width="1.046" height="1.05" x="-.02" y="-.03" style="color-interpolation-filters:sRGB">
   <feGaussianBlur stdDeviation="2.32"/>
  </filter>
  <linearGradient id="linearGradient954" x1="7.5" x2="64.112" y1="230.789" y2="294.501" gradientTransform="matrix(1.0193681,0,0,1.0193681,0,-5.7113166)" gradientUnits="userSpaceOnUse" xlink:href="#linearGradient1304"/>
  <filter id="filter1010" width="1.093" height="1.099" x="-.05" y="-.05" style="color-interpolation-filters:sRGB">
   <feGaussianBlur stdDeviation=".665"/>
  </filter>
  <filter id="filter1044" width="1.12" height="1.12" x="-.06" y="-.06" style="color-interpolation-filters:sRGB">
   <feGaussianBlur stdDeviation=".992"/>
  </filter>
 </defs>
 <g transform="translate(0,-229.26666)">
  <path d="m 162.53675,5.5680001 c 72.64865,0 83.03125,10.3566149 83.03125,82.9375049 v 58.125005 c 0,72.58059 -10.3826,82.9375 -83.03125,82.9375 H 88.599254 C 15.9506,229.56801 5.568,219.2111 5.568,146.63051 V 88.505505 c 0,-72.58089 10.3826,-82.9375049 83.031254,-82.9375049 z" transform="matrix(0.26970779,0,0,0.26970779,-1.9098094e-8,231.46531)" style="opacity:0.2;filter:url(#filter939)"/>
  <path style="opacity:0.1;fill:none;stroke:#000000;stroke-width:1.07883108;stroke-linecap:round;stroke-linejoin:round" d="m 43.837429,232.42763 c 19.593907,0 22.394176,2.79326 22.394176,22.36889 v 15.67677 c 0,19.57555 -2.800269,22.36889 -22.394176,22.36889 H 23.89591 c -19.5939088,0 -22.394177,-2.79334 -22.394177,-22.36889 v -15.67677 c 0,-19.57563 2.8002682,-22.36889 22.394177,-22.36889 z"/>
  <path style="opacity:0.1;filter:url(#filter4569)" d="m 162.53675,3.5680001 c 72.64865,0 83.03125,10.3566149 83.03125,82.9375049 v 58.125005 c 0,72.58059 -10.3826,82.9375 -83.03125,82.9375 H 88.599254 C 15.9506,227.56801 5.568,217.2111 5.568,144.63051 V 86.505505 c 0,-72.58089 10.3826,-82.9375049 83.031254,-82.9375049 z" transform="matrix(0.26970779,0,0,0.26970779,-1.9098094e-8,231.46531)"/>
  <path d="m 43.837427,232.42763 c 19.593907,0 22.394175,2.79326 22.394175,22.36889 v 15.67677 c 0,19.57555 -2.800268,22.36889 -22.394175,22.36889 h -19.94152 c -19.5939074,0 -22.3941756,-2.79334 -22.3941756,-22.36889 v -15.67677 c 0,-19.57563 2.8002682,-22.36889 22.3941756,-22.36889 z" style="fill:url(#linearGradient954)"/>
  <path style="opacity:0.4;fill:none;stroke:url(#linearGradient1108);stroke-width:8;stroke-linecap:round;stroke-linejoin:round" d="M 361.9375,-212 C 507.2348,-212 528,-191.28677 528,-46.125 V 70.125 C 528,215.28618 507.2348,236 361.9375,236 H 214.0625 C 68.7652,236 48,215.28618 48,70.125 V -46.125 C 48,-191.28677 68.7652,-212 214.0625,-212 Z" clip-path="url(#clipPath1082-3-361)" transform="matrix(0.1348539,0,0,0.1348539,-4.9712559,261.01666)"/>
  <path d="m 23.895907,292.84218 c -19.5939074,0 -22.3941756,-2.79326 -22.3941756,-22.36889 v -7.83838 H 66.231602 v 7.83838 c 0,19.57563 -2.800268,22.36889 -22.394175,22.36889 z" style="opacity:0.1;fill:#ffffff"/>
  <path d="m 33.866666,232.42763 v 60.41455 h 9.970761 c 19.593907,0 22.394175,-2.79334 22.394175,-22.36889 v -15.67677 c 0,-19.57563 -2.800268,-22.36889 -22.394175,-22.36889 z" style="opacity:0.1;fill:#ffffff"/>
  <g transform="translate(0.2639912,-0.070965)">
   <path style="opacity:0.4;fill:#ffffff;filter:url(#filter1044)" d="m 53.446425,262.70587 a 19.84375,19.84375 0 1 1 -39.687499,0 19.84375,19.84375 0 1 1 39.687499,0 z"/>
   <path d="m 53.446425,262.70587 a 19.84375,19.84375 0 1 1 -39.687499,0 19.84375,19.84375 0 1 1 39.687499,0 z" style="fill:#b12828"/>
   <g style="filter:url(#filter1010);opacity:0.3">
    <path d="M 160.5 69.824219 L 138 108.79297 A 20.000003 20.000003 0 0 1 138.08984 108.83984 A 20.000003 20.000003 0 0 1 139.76367 109.93164 A 20.000003 20.000003 0 0 1 141.31836 111.1875 A 20.000003 20.000003 0 0 1 142.74219 112.5918 A 20.000003 20.000003 0 0 1 144.01758 114.13086 A 20.000003 20.000003 0 0 1 145.13281 115.78906 A 20.000003 20.000003 0 0 1 146.07812 117.55273 A 20.000003 20.000003 0 0 1 146.8418 119.40039 A 20.000003 20.000003 0 0 1 147.41797 121.31445 A 20.000003 20.000003 0 0 1 147.79883 123.27734 A 20.000003 20.000003 0 0 1 147.98242 125.26758 A 20.000003 20.000003 0 0 1 148 126.11523 L 193 126.11523 A 64.999986 64.999986 0 0 0 160.5 69.824219 z" transform="matrix(0.26458333,0,0,0.26458333,-0.2639912,229.33762)"/>
    <path d="M 95.5 69.824219 A 64.999986 64.999986 0 0 0 63 126.11523 L 108 126.11523 A 20.000003 20.000003 0 0 1 108.09961 124.11914 A 20.000003 20.000003 0 0 1 108.39648 122.14258 A 20.000003 20.000003 0 0 1 108.89062 120.20508 A 20.000003 20.000003 0 0 1 109.57617 118.32617 A 20.000003 20.000003 0 0 1 110.44336 116.52734 A 20.000003 20.000003 0 0 1 111.48828 114.82227 A 20.000003 20.000003 0 0 1 112.69727 113.23047 A 20.000003 20.000003 0 0 1 114.06055 111.76562 A 20.000003 20.000003 0 0 1 115.56055 110.44727 A 20.000003 20.000003 0 0 1 117.1875 109.2832 A 20.000003 20.000003 0 0 1 118.00977 108.81055 L 95.5 69.824219 z" transform="matrix(0.26458333,0,0,0.26458333,-0.2639912,229.33762)"/>
    <path d="M 117.99805 143.43945 L 95.5 182.4082 A 64.999986 64.999986 0 0 0 160.5 182.4082 L 137.99219 143.42188 A 20.000003 20.000003 0 0 1 137.08008 143.94531 A 20.000003 20.000003 0 0 1 135.25586 144.76172 A 20.000003 20.000003 0 0 1 133.35742 145.39453 A 20.000003 20.000003 0 0 1 131.4082 145.83203 A 20.000003 20.000003 0 0 1 129.42383 146.07422 A 20.000003 20.000003 0 0 1 127.42383 146.11719 A 20.000003 20.000003 0 0 1 125.43164 145.95898 A 20.000003 20.000003 0 0 1 123.46484 145.60352 A 20.000003 20.000003 0 0 1 121.54297 145.05273 A 20.000003 20.000003 0 0 1 119.68555 144.31445 A 20.000003 20.000003 0 0 1 117.99805 143.43945 z" transform="matrix(0.26458333,0,0,0.26458333,-0.2639912,229.33762)"/>
    <path d="m 36.909964,262.70587 a 3.3072935,3.3072935 0 1 1 -6.614587,0 3.3072935,3.3072935 0 1 1 6.614587,0 z"/>
   </g>
   <g>
    <path style="fill:#ffb800" d="M 160.5 69.824219 L 138 108.79297 A 20.000003 20.000003 0 0 1 138.08984 108.83984 A 20.000003 20.000003 0 0 1 139.76367 109.93164 A 20.000003 20.000003 0 0 1 141.31836 111.1875 A 20.000003 20.000003 0 0 1 142.74219 112.5918 A 20.000003 20.000003 0 0 1 144.01758 114.13086 A 20.000003 20.000003 0 0 1 145.13281 115.78906 A 20.000003 20.000003 0 0 1 146.07812 117.55273 A 20.000003 20.000003 0 0 1 146.8418 119.40039 A 20.000003 20.000003 0 0 1 147.41797 121.31445 A 20.000003 20.000003 0 0 1 147.79883 123.27734 A 20.000003 20.000003 0 0 1 147.98242 125.26758 A 20.000003 20.000003 0 0 1 148 126.11523 L 193 126.11523 A 64.999986 64.999986 0 0 0 160.5 69.824219 z" transform="matrix(0.26458333,0,0,0.26458333,-0.2639912,229.33762)"/>
    <path style="fill:#ffb800" d="M 95.5 69.824219 A 64.999986 64.999986 0 0 0 63 126.11523 L 108 126.11523 A 20.000003 20.000003 0 0 1 108.09961 124.11914 A 20.000003 20.000003 0 0 1 108.39648 122.14258 A 20.000003 20.000003 0 0 1 108.89062 120.20508 A 20.000003 20.000003 0 0 1 109.57617 118.32617 A 20.000003 20.000003 0 0 1 110.44336 116.52734 A 20.000003 20.000003 0 0 1 111.48828 114.82227 A 20.000003 20.000003 0 0 1 112.69727 113.23047 A 20.000003 20.000003 0 0 1 114.06055 111.76562 A 20.000003 20.000003 0 0 1 115.56055 110.44727 A 20.000003 20.000003 0 0 1 117.1875 109.2832 A 20.000003 20.000003 0 0 1 118.00977 108.81055 L 95.5 69.824219 z" transform="matrix(0.26458333,0,0,0.26458333,-0.2639912,229.33762)"/>
    <path style="fill:#ffb800" d="M 117.99805 143.43945 L 95.5 182.4082 A 64.999986 64.999986 0 0 0 160.5 182.4082 L 137.99219 143.42188 A 20.000003 20.000003 0 0 1 137.08008 143.94531 A 20.000003 20.000003 0 0 1 135.25586 144.76172 A 20.000003 20.000003 0 0 1 133.35742 145.39453 A 20.000003 20.000003 0 0 1 131.4082 145.83203 A 20.000003 20.000003 0 0 1 129.42383 146.07422 A 20.000003 20.000003 0 0 1 127.42383 146.11719 A 20.000003 20.000003 0 0 1 125.43164 145.95898 A 20.000003 20.000003 0 0 1 123.46484 145.60352 A 20.000003 20.000003 0 0 1 121.54297 145.05273 A 20.000003 20.000003 0 0 1 119.68555 144.31445 A 20.000003 20.000003 0 0 1 117.99805 143.43945 z" transform="matrix(0.26458333,0,0,0.26458333,-0.2639912,229.33762)"/>
    <path style="fill:#ffb800" d="m 36.909964,262.70587 a 3.3072935,3.3072935 0 1 1 -6.614587,0 3.3072935,3.3072935 0 1 1 6.614587,0 z"/>
   </g>
  </g>
 </g>
</svg>
